X:1
N: Joie de Vivre
N: 8x32J 3C (Irene van Maarseveen/RSCDS Bk 39)
T: Anderson's Jig
C: by Carol Cook, arr Terry Traub, 10-21-1996
M: 6/8
L: 1/8
R: Jig
%
K: C
|: G|"C"c2 e "G"dcB|"C"cGE CEG|"F"AGF "C"GFE|"Dm"DEF "G"GAB|"C"cde "G"dcB|
"C"cGE CEG|"F"A<fe "G"d<gB | [1 "C"c3 c2 :| [2 "C"c3 cef |: "C"gec "F"afc|"C"gec "Am"cde|
"F"fed "D"edc|"G"dBG GAB|"C"cde "E7"dcB|"Am"cGE "C"CEG|"F"A<fe "G"d<gB |1 "C"c3 cef :| [2 "C"c3 c2 |]
